blockchains/ethereum/assets/0xf8e386EDa857484f5a12e4B5DAa9984E06E73705/logo.svg

<svg fill="none" height="250" viewBox="0 0 250 250" width="250" xmlns="http://www.w3.org/2000/svg" xmlns:xlink="http://www.w3.org/1999/xlink"><clipPath id="a"><path d="m0 0h250v250h-250z"/></clipPath><clipPath id="b"><path d="m62.5 52.084h125v135.417h-125z"/></clipPath><g clip-path="url(#a)"><path clip-rule="evenodd" d="m250 125c0 69.036-55.964 125-125 125-69.0359 0-125-55.964-125-125 0-69.0359 55.9641-125 125-125 69.036 0 125 55.9641 125 125z" fill="#fff" fill-rule="evenodd"/><g clip-path="url(#b)" fill="#000"><path d="m62.5 119.426v67.341h62.491 62.483v-67.341h-62.483z"/><path d="m187.5 52.084h-125c-.0069 8.836 1.604 17.5869 4.7408 25.7532 3.1367 8.1662 7.7379 15.5879 13.5407 21.8411 5.8029 6.2537 12.6938 11.2157 20.2795 14.6037 7.585 3.388 15.717 5.136 23.93 5.144 8.215-.004 16.349-1.749 23.937-5.136s14.482-8.349 20.287-14.6023c5.805-6.2537 10.407-13.6767 13.545-21.8447 3.137-8.168 4.748-16.9211 4.74-25.759z"/></g></g></svg>

<svg width="250" height="250" viewBox="0 0 250 250" fill="none" xmlns="http://www.w3.org/2000/svg">
<g clip-path="url(#clip0_44_10511)">
<path fill-rule="evenodd" clip-rule="evenodd" d="M250 125C250 194.036 194.036 250 125 250C55.9641 250 0 194.036 0 125C0 55.9641 55.9641 0 125 0C194.036 0 250 55.9641 250 125Z" fill="white"/>
<g clip-path="url(#clip1_44_10511)">
<path d="M62.5 119.426V186.767H124.991H187.474V119.426H124.991H62.5Z" fill="black"/>
<path d="M187.5 52.084H62.5C62.4931 60.92 64.104 69.6709 67.2408 77.8372C70.3775 86.0034 74.9787 93.4251 80.7815 99.6783C86.5844 105.932 93.4753 110.894 101.061 114.282C108.646 117.67 116.778 119.418 124.991 119.426C133.206 119.422 141.34 117.677 148.928 114.29C156.516 110.903 163.41 105.941 169.215 99.6877C175.02 93.434 179.622 86.011 182.76 77.843C185.897 69.675 187.508 60.9219 187.5 52.084Z" fill="black"/>
</g>
</g>
<defs>
<clipPath id="clip0_44_10511">
<rect width="250" height="250" fill="white"/>
</clipPath>
<clipPath id="clip1_44_10511">
<rect width="125" height="135.417" fill="white" transform="translate(62.5 52.084)"/>
</clipPath>
</defs>
</svg>
